X: 9
T: Willie Coleman's
C: Willie Coleman
Z: JACKB
S: https://thesession.org/tunes/476#setting47366
R: jig
M: 6/8
L: 1/8
K: Gmaj
|:B3 AGE|GED GBd|edB dgb|age dBA|
BGG AGE|GED GBd|edB cBA|BGF G3:|
|:g3 edB|dgb age|g3 edB|GBd e2f|
g3 edB|dgb age|dB/c/d gdB|1 cFA G3:|2 cFA d^c=c||

